X:1
T:Light Of The Seven
T: Let's Kill Some Crows (Advanced Piano Solo)
T: Game Of Thrones OST Season 4 Episode 9
T: Composed by Ramin Djawadi Piano arrangement by Nicolas Del Gallo Full playthrough and more at https://www.youtube.com/c/NDGmusic If you want to donate, please check out my Patreon ☺ https://www.patreon.com/ndg 
C:Ramin Djawadi
%%score { ( 1 5 ) | ( 2 3 4 ) }
L:1/8
Q:1/4=130
M:4/4
K:G
V:1 treble nm="Piano" snm="Pno."
V:5 treble 
V:2 bass 
V:3 bass 
V:4 bass 
V:1
"^\n" E8 |[K:bass] E,8 |[M:2/4] !///-!E,,2 E,2 |[M:5/8]{/G,,F,,=F,,} [E,,E,]3 E,,2 | E,,3 E,,E,, | %5
 E,,3 E,,2 | E,,3 E,,2 | [E,,E,]3 E,,2 | E,,3 E,,E,, | E,,3 E,,2 | E,,3 E,,2 | [E,,E,]3 E,,2 | %12
 E,,3 E,,E,, | E,,3 E,,2 |[M:3/8] E,,3 |[M:5/4] [E,B,E]3 E,3 E, z E, z | %16
 [^D^A^d]4 ^D,2 D,2 E/B,/E,/B,,/ | [E,B,E]3 E,2 z E, z E, z | [^D,^A,^D]4 D,2 D,2 E,2 | %19
 [E,B,E]3 E,2 z E, z E, z | [^D,^A,^D]4 D,2 D,2 D,2 |[M:5/8] [E,E][^D,^D][=D,=D] [^C,^C][=C,=C] | %22
 [E,E][^D,^D][=D,=D] [^C,^C][=C,=C] | [E,G,E][^D,F,^D][=D,=F,=D] [^C,E,^C][=C,_E,=C] | %24
 [E,G,E][^D,F,^D][=D,=F,=D] [^C,E,^C][=C,_E,=C] | [E,_B,E][^D,A,^D][=D,_A,=D] [^C,G,^C][=C,_G,=C] | %26
 [E,_B,E][^D,A,^D][=D,_A,=D] [^C,G,^C][=C,_G,=C] | %27
[M:6/8] [E,B,E][^D,^A,^D][=D,=A,=D] [^C,^G,^C][=C,=G,=C][B,,F,B,] |[M:5/8] E,2 z2 z | %29
[K:treble] z3 [^DE^d]2 |[M:7/8] z7 |[M:5/8] [E,E]3 [E,E]2 | [^D,^DE]3 [D,DE]2 | %33
[M:7/8] [^D,^DE]3 [D,DE]2 [D,DE]2 |[M:5/8] [E,E]3 [E,E]2 | [^D,^DE]3 [D,DE]2 | %36
[M:7/8] [^D,^DE]3 [D,DE]2 [D,DE]2 |[M:5/8] [C,C]3 [C,C]2 | [B,,B,C]3 [B,,B,C]2 | %39
[M:9/8] [B,,B,C]3 [B,,B,C]2 [B,,B,C]2 [B,,B,C]2 | %40
[M:4/4]"^5/4 structure but easier to read in 4/4" [E-Be-]8 | [Ee]4 [cec']4 | [E-Be-]8 | %43
 [Ee]4 [cec']4 | [CGc]8- | [CGc]4 [_d_d']4 | [C-Gc-]8 |[M:2/4] [Cc]4 |[M:3/4] [C,C]4 C,2 | %49
 [_D_A_d]6 | [C,C]4 C,2 | [_D_A_d]4 ^C,/G,/^G,/^C/ | [D,D]4 D,2 | [^D^A^d]3 E, ^D,=D, | %54
 [^D,^D]4 D,2 | [EBe]6 | [E,E]4 E,2 | [=Fc=f]6 |[M:4/4] [B,EFG]8 | !///-!B4 !~(!b4 | !~)!E,8 | z8 | %62
 z8 | !///-!B,4 B4 | !///-!B,4 B4 | !///-!B,4 B4 |: [B,,E,B,]3 [B,,E,B,] [B,,E,B,]3 [B,,E,B,] | %67
 [B,,E,B,]3 [B,,E,B,] [B,,E,B,]2 [B,,E,B,][C,E,C] | [B,,E,B,]3 [B,,E,B,] [B,,E,B,]3 [B,,E,B,] | %69
 [B,,E,B,]3 [B,,E,B,] [B,,E,B,]2 [B,,E,B,][C,E,C] :| [B,,E,B,]3 [B,,E,B,] [B,,E,B,]2 z2 | %71
 z2[I:staff +1] !>!!~(![A,,,,B,,,,C,,,D,,,E,,,]6 |[M:5/4][I:staff -1] !~)![E,B,E]6 z4 | %73
 [_E_B_e]6 z4 | [E,B,E]6 z4 | [_E_B_e]6 z4 | [E,B,E]6 z4 | [_E_B_e]6 z4 |[M:2/4] [_E_e]2 =E^D | %79
[M:4/4]!8vb(! D,^C,=C,E, ^D,=D,^C,=C, | E,^D,=D,^C, =C,E,^D,=D, | ^C,=C,E,^D, =D,^C,=C,E, | %82
 ^D,=D,^C,=C, E,^D,=D,^C, | C,!8vb)![E,E][^D,^D][=D,=D] [^C,^C][=C,=C][E,E][^D,^D] | %84
 [D,D][^C,^C][=C,=C][E,E] [^D,^D][=D,=D][^C,^C][=C,=C] | [Ee]2 [B,B]2 [Cc][Dd] [Ee]2 | %86
 [B,B]2 [Cc][Dd] [_E_e]2 [B,B]2 | [Cc][Dd] [_E_e]2 [B,B]2 [Cc][Dd] | %88
 [Ee]2 [B,B]2 [Cc][Dd] [_E_e]2 | [B,B]2 [Cc][Dd] [_E_e]2 [B,B]2 | [Cc][Dd] [Ee]2 [B,B]2 [Cc][Dd] | %91
 [_E_e]2 [B,B]2 [Cc][Dd] [Ee]2 |[M:3/4] [B,B]2 [Cc][Dd] [_E_e]2 | %93
[M:5/8][K:bass]!mf! !//![E,E]4- !//![E,E] | !//![E,E]4- !//![E,E] | !//![E,E]4- !//![E,E] | %96
 !//![E,E]4- !//![E,E] | !//![E,E]4- !//![E,E] | !//![E,E]4- !//![E,-E] |[M:6/8] !//![E,E]3 z3 | %100
[M:4/4] E,^D,=D,^C, =C,E,^D,=D, | ^C,=C,E,^D, =D,^C,=C,E, | ^D,=D,^C,=C, E,^D,=D,^C, | %103
 C,E,^D,=D, ^C,=C,E,^D, | D,^C,=C,E, ^D,=D,^C,=C, | E,^D,=D,^C, =C,E,^D,=D, | %106
 ^C,=C,[E,E][^D,^D] [=D,=D][^C,^C][=C,=C][E,E] | %107
 [^D,^D][=D,=D][^C,^C][=C,=C] [E,E][^D,^D][=D,=D][^C,^C] |[K:treble] [Ee]2 [Ee]6 | [Ee]2 [Ee]6 | %110
 [ee']2 [ee']6 | [E,E]2 [Befg]6 | !///-!B4 [Be=fg]4 | z8 |] %114
V:2
 [E,,E,]8 | [E,,,E,,]8 |[M:2/4] !///-!E,,2 E,2 |[M:5/8]!8vb(! E,,,E,,,E,,, E,,,E,,, | %4
 E,,,E,,,E,,, E,,,E,,, | E,,,E,,,E,,, E,,,E,,, | E,,,E,,,E,,, E,,,E,,, | z E,,,E,,, E,,,E,,, | %8
 E,,,E,,,E,,, E,,,E,,, | E,,,E,,,E,,, E,,,E,,, | E,,,E,,,E,,, E,,,E,,, | z E,,,E,,, E,,,E,,, | %12
 E,,,E,,,E,,, E,,,E,,, | E,,,E,,,E,,, E,,,E,,, |[M:3/8] E,,,E,,,E,,,!8vb)! | %15
[M:5/4] [E,,,E,,]3 E,,2 E,,, E,,E,,,E,,E,,, | ^D,,3 ^D,,, D,,2 D,,2 D,,2 | %17
 [E,,,E,,]3 E,,2 E,,, E,,E,,,E,,E,,, | ^D,,3 ^D,,, D,,2 D,,2 D,,2 | %19
 [E,,,E,,]3 E,,2 E,,, E,,E,,,E,,E,,, | ^D,,3 ^D,,, D,,2 D,,2 D,,2 |[M:5/8] [E,,,E,,]3 [E,,,E,,]2 | %22
 [E,,,E,,]3 [E,,,E,,]2 | [E,,,E,,]3 [E,,,E,,]2 | [E,,,E,,]2 [E,,,E,,]3 | [E,,,E,,]2 [E,,,E,,]3 | %26
 [E,,,E,,]2 [E,,,E,,]3 |[M:6/8] [E,,,E,,]2 [E,,,E,,]2 [E,,,E,,]2 | %28
[M:5/8] [E,,,E,,]2 E,, [E,,,E,,]2 | [E,,,E,,]2 E,, [E,,,E,,]2 | %30
[M:7/8] [E,,,E,,]2 E,, [E,,,E,,]2 [E,,,E,,]2 |[M:5/8] [C,,,C,,]2 C,, [C,,,C,,]2 | %32
 [B,,,,B,,,]2 B,,, [B,,,,B,,,]2 |[M:7/8] [B,,,,B,,,]2 B,,, [B,,,,B,,,]2 [B,,,,B,,,]2 | %34
[M:5/8] [E,,,E,,]2 E,, [E,,,E,,]2 | [^D,,,^D,,]2 D,, [D,,,D,,]2 | %36
[M:7/8] [^D,,,^D,,]2 D,, [D,,,D,,]2 [D,,,D,,]2 |[M:5/8] [C,,,C,,]2 C,, [C,,,C,,]2 | %38
 [B,,,,B,,,]2 B,,, [B,,,,B,,,]2 |[M:9/8] [B,,,,B,,,]2 B,,, [B,,,,B,,,]2 [B,,,,B,,,]2 [B,,,,B,,,]2 | %40
[M:4/4] [E,,,E,,]8 | x8 | [E,,,E,,]8 | x8 | [C,,,C,,]8 | x8 | [C,,,C,,]8 |[M:2/4] x4 | %48
[M:3/4]{/C,,,G,,,} [C,,,C,,]3 C,,, C,,C,,, | [_D,,_D,]3 D,, _D,,,2 | [C,,,C,,]3 C,,, C,,C,,, | %51
 [_D,,_D,]3 D,, _D,,,2 | [D,,,D,,]3 D,,, D,,D,,, | [^D,,^D,]3 D,, ^D,,,2 | %54
 [^D,,,^D,,]3 D,,, D,,D,,, | [E,,E,]3 E,, E,,,2 | [E,,,E,,]3 E,,, E,,E,,, | [E,,E,]3 E,, E,,,2 | %58
[M:4/4] [E,,,E,,]8 | !arpeggio![E,B,E]8 | [E,,,E,,]6 E,,E,, | E,,2 E,,E,, E,,2 E,,E,, | %62
 !>![E,,,E,,]E,,E,,[E,,,E,,] [E,,,E,,]2 [E,,,E,,][E,,,E,,] | %63
 [E,,,E,,]2 [E,,,E,,][E,,,E,,] !>![E,,,E,,]E,,[E,,,E,,][E,,,E,,] | %64
 [E,,,E,,]2 E,,[E,,,E,,] [E,,,E,,]2 [E,,,E,,][E,,,E,,] | %65
 !>![E,,,E,,]E,,[E,,,E,,][E,,,E,,] [E,,,E,,]2 [E,,,E,,][E,,,E,,] |: %66
 [E,,,E,,]E,,E,,[E,,,E,,] [E,,,E,,]E,,E,,[E,,,E,,] | %67
 [E,,,E,,]E,,E,,[E,,,E,,] [E,,,E,,]E,,[E,,,E,,][=F,,,=F,,] | %68
 [E,,,E,,]E,,E,,[E,,,E,,] [E,,,E,,]E,,E,,[E,,,E,,] | %69
 [E,,,E,,]E,,E,,[E,,,E,,] [E,,,E,,]E,,[E,,,E,,][=F,,,=F,,] :| %70
 [E,,,E,,]E,,E,,[E,,,E,,] [E,,,E,,]2 z2 | z2 x6 | %72
[M:5/4] [E,,,E,,]3 [E,,,E,,][E,,,E,,][E,,,E,,] [E,,,E,,]2 [E,,,E,,]2 | %73
 [_E,,_E,]3 [E,,E,][E,,E,][E,,E,] [E,,E,]2 [E,,E,]2 | %74
 [E,,,E,,]3 [E,,,E,,][E,,,E,,][E,,,E,,] [E,,,E,,]2 [E,,,E,,]2 | %75
 [_E,,_E,]3 [E,,E,][E,,E,][E,,E,] [E,,E,]2 [E,,E,]2 | %76
 [E,,,E,,]3 [E,,,E,,][E,,,E,,][E,,,E,,] [E,,,E,,]2 [E,,,E,,]2 | %77
 [_E,,_E,]3 [E,,E,][E,,E,][E,,E,] [E,,E,]2 [E,,E,]2 |[M:2/4] E,2 E,2 | %79
[M:4/4] [E,,,E,,]3 [E,,,E,,] [E,,,E,,]3 [E,,,E,,] | %80
 [E,,,E,,]3 [E,,,E,,] [E,,,E,,]2 [E,,,E,,][E,,,E,,] | [E,,,E,,]3 [E,,,E,,] [E,,,E,,]3 [E,,,E,,] | %82
 [E,,,E,,]3 [E,,,E,,] [E,,,E,,]2 [E,,,E,,][E,,,E,,] | [E,,,E,,]3 [E,,,E,,] [E,,,E,,]3 [E,,,E,,] | %84
 [E,,,E,,]3 [E,,,E,,] [E,,,E,,][E,,,E,,][E,,,E,,][E,,,E,,] | %85
 [E,,,E,,]3 [E,,,E,,] [E,,E,]3 [E,,,E,,] | [E,,,E,,]3 E,,/B,,/ [E,,E,]2 [_E,,_E,]2 | %87
 [E,,,E,,]3 [E,,,E,,] [E,,E,]3 [E,,,E,,] | [E,,,E,,]3 E,,/B,,/ [E,,E,]3 E,,/B,,,/ | %89
 [E,,,E,,]3 [E,,,E,,] [E,,,E,,]3 [E,,,E,,] | [E,,,E,,]3 E,,/B,,/ [E,,E,]2 [_E,,_E,]2 | %91
 [E,,,E,,]3 [E,,,E,,] [E,,,E,,]3 [E,,,E,,] |[M:3/4] [E,,,E,,]6 | %93
[M:5/8] [E,,,E,,]E,,,E,,, E,,,E,,, | [E,,,E,,]E,,,E,,, E,,,E,,, | [E,,,E,,]E,,,E,,, E,,,E,,, | %96
 [E,,,E,,]E,,,E,,, E,,,E,,, | [E,,,E,,]E,,,E,,, E,,,E,,, | [E,,,E,,]E,,,E,,, E,,,E,,, | %99
[M:6/8] [E,,,E,,]E,,,E,,, E,,,E,,,E,,, |[M:4/4] [E,,,E,,] [E,,,E,,]3!8va(! [E,E] [E,E]3!8va)! | %101
 [E,,,E,,] [E,,,E,,]3!8va(! [E,E]2!8va)! [E,,,E,,][E,,,E,,] | %102
 [E,,,E,,] [E,,,E,,]3!8va(! [E,E] [E,E]3!8va)! | %103
 [E,,,E,,] [E,,,E,,]3!8va(! [E,E]2!8va)! [E,,,E,,][E,,,E,,] | %104
 [E,,,E,,] [E,,,E,,]3!8va(! [E,E] [E,E]3!8va)! | %105
 [E,,,E,,] [E,,,E,,]3!8va(! [E,E]2!8va)! [E,,,E,,][E,,,E,,] | %106
 [E,,,E,,] [E,,,E,,]3!8va(! [E,E] [E,E]3!8va)! | %107
 [E,,,E,,] [E,,,E,,]3!8va(! [E,E]2!8va)! [E,,,E,,][E,,,E,,] | %108
 [C,,C,][E,,,E,,][^D,,,^D,,][=D,,,=D,,] [^C,,,^C,,][=C,,,=C,,][E,,E,][^D,,^D,] | %109
 [D,,D,][^C,,^C,][=C,,=C,][E,,,E,,] [^D,,,^D,,][=D,,,=D,,][^C,,,^C,,][=C,,,=C,,] | %110
 [E,,E,][^D,,^D,][=D,,=D,][^C,,^C,] [=C,,=C,][E,,,E,,][^D,,,^D,,][=D,,,=D,,] | [E,,,E,,]2 [E,E]6 | %112
 !///-!E,4 [B,=F]4 | [E,,,E,,]8 |] %114
V:3
 x8 | x8 |[M:2/4] x4 |[M:5/8]!8vb(! E,,3 z2 | x5 | x5 | x5 | x5 | x5 | x5 | x5 | x5 | x5 | x5 | %14
[M:3/8] x3!8vb)! |[M:5/4] x10 | x10 | x10 | x10 | x10 | x10 |[M:5/8] x5 | x5 | x5 | x5 | x5 | x5 | %27
[M:6/8] x6 |[M:5/8] x5 | x5 |[M:7/8] x7 |[M:5/8] x5 | x5 |[M:7/8] x7 |[M:5/8] x5 | x5 |[M:7/8] x7 | %37
[M:5/8] x5 | x5 |[M:9/8] x9 |[M:4/4] z2 [^D,,^D,]2 [=D,,=D,]2 [^C,,^C,]2 | %41
 [C,,C,]2 [E,,E,]2 [^D,,^D,]2 [=D,,=D,]2 | ^C,,2 [=C,,C,]2 [E,,E,]2 [^D,,^D,]2 | %43
 [D,,D,]2 [^C,,^C,]2 [=C,,=C,]2 [E,,E,]2 | z2 [D,,D,]2 [^C,,^C,]2 [=C,,=C,]2 | %45
 [E,,E,]2 [^D,,^D,]2 [=D,,=D,]2 [^C,,^C,]2 | z2 [E,,E,]2 [^D,,^D,]2 [=D,,=D,]2 | %47
[M:2/4] [^C,,^C,]2 [=C,,=C,]2 |[M:3/4] x6 | x6 | x6 | x6 | x6 | x6 | x6 | x6 | x6 | x6 | %58
[M:4/4] x8 | x8 | x8 | x8 | x8 | x8 | x8 | x8 |: x8 | x8 | x8 | x8 :| x8 | x8 |[M:5/4] x10 | x10 | %74
 x10 | x10 | x10 | x10 |[M:2/4] x4 |[M:4/4] x8 | x8 | x8 | x8 | x8 | x8 | x8 | x8 | x8 | x8 | x8 | %90
 x8 | x8 |[M:3/4] x6 |[M:5/8] x5 | x5 | x5 | x5 | x5 | x5 | %99
[M:6/8] z3 ^A,,/=A,,/^G,,/=G,,/F,,/=F,,/ |[M:4/4] x4!8va(! x4!8va)! | x4!8va(! x2!8va)! x2 | %102
 x4!8va(! x4!8va)! | x4!8va(! x2!8va)! x2 | x4!8va(! x4!8va)! | x4!8va(! x2!8va)! x2 | %106
 x4!8va(! x4!8va)! | x4!8va(! x2!8va)! x2 | x8 | x8 | x8 | x8 | x8 | x8 |] %114
V:4
 x8 | x8 |[M:2/4] x4 |[M:5/8]!8vb(! x5 | x5 | x5 | x5 | [B,,,,E,,,]4 x | x5 | x5 | x5 | %11
 [B,,,,E,,,]4 x | x5 | x5 |[M:3/8] x3!8vb)! |[M:5/4] x10 | x10 | x10 | x10 | x10 | x10 | %21
[M:5/8] x5 | x5 | x5 | x5 | x5 | x5 |[M:6/8] x6 |[M:5/8] x5 | x5 |[M:7/8] x7 |[M:5/8] x5 | x5 | %33
[M:7/8] x7 |[M:5/8] x5 | x5 |[M:7/8] x7 |[M:5/8] x5 | x5 |[M:9/8] x9 |[M:4/4] x8 | x8 | x8 | x8 | %44
 x8 | x8 | x8 |[M:2/4] x4 |[M:3/4] x6 | x6 | x6 | x6 | x6 | x6 | x6 | x6 | x6 | x6 |[M:4/4] x8 | %59
 x8 | x8 | x8 | x8 | x8 | x8 | x8 |: x8 | x8 | x8 | x8 :| x8 | x8 |[M:5/4] x10 | x10 | x10 | x10 | %76
 x10 | x10 |[M:2/4] x4 |[M:4/4] x8 | x8 | x8 | x8 | x8 | x8 | x8 | x8 | x8 | x8 | x8 | x8 | x8 | %92
[M:3/4] x6 |[M:5/8] x5 | x5 | x5 | x5 | x5 | x5 |[M:6/8] x6 |[M:4/4] x4!8va(! x4!8va)! | %101
 x4!8va(! x2!8va)! x2 | x4!8va(! x4!8va)! | x4!8va(! x2!8va)! x2 | x4!8va(! x4!8va)! | %105
 x4!8va(! x2!8va)! x2 | x4!8va(! x4!8va)! | x4!8va(! x2!8va)! x2 | x8 | x8 | x8 | x8 | x8 | x8 |] %114
V:5
 x8 |[K:bass] x8 |[M:2/4] x4 |[M:5/8] x5 | x5 | x5 | x5 | x5 | x5 | x5 | x5 | x5 | x5 | x5 | %14
[M:3/8] x3 |[M:5/4] x7 E,/B,/ E/E/B/e/ | x10 | x10 | x10 | x10 | x10 |[M:5/8] x5 | x5 | x5 | x5 | %25
 x5 | x5 |[M:6/8] x6 |[M:5/8] x5 |[K:treble] x5 |[M:7/8] x7 |[M:5/8] x5 | x5 |[M:7/8] x7 | %34
[M:5/8] x5 | x5 |[M:7/8] x7 |[M:5/8] x5 | x5 |[M:9/8] x9 |[M:4/4] x8 | x8 | x8 | x8 | x8 | x8 | %46
 x8 |[M:2/4] x4 |[M:3/4] x6 | x6 | x6 | x6 | x6 | x6 | x6 | x6 | x6 | x6 |[M:4/4] x8 | x8 | x8 | %61
 x8 | x8 | x8 | x8 | x8 |: x8 | x8 | x8 | x8 :| x8 | x8 |[M:5/4] z2 [B,B]2 [Cc][Dd] [Ee]2 [B,B]2 | %73
 c[Dd] [_E_e]2 [B,=B]2 [Cc][Dd] [Ee]2 | z2 [Cc][Dd] [Ee]2 [B,B]2 [Cc][Dd] | %75
 z2 [B,=B]2 [Cc][Dd] [_E_e]2 [B,B]2 | C[Dd] [Ee]2 [B,B]2 [Cc][Dd] [_E_e]2 | %77
 =B2 [Cc][Dd] [_E_e]2 [B,B]2 [Cc][Dd] |[M:2/4] x4 |[M:4/4]!8vb(! x8 | x8 | x8 | x8 | x!8vb)! x7 | %84
 x8 | x8 | x8 | x8 | x8 | x8 | x8 | x8 |[M:3/4] x6 |[M:5/8][K:bass] x5 | x5 | x5 | x5 | x5 | x5 | %99
[M:6/8] x6 |[M:4/4] x8 | x8 | x8 | x8 | x8 | x8 | x8 | x8 |[K:treble] x8 | x8 | x8 | z8 | x8 | %113
 x8 |] %114

